src/j2.svg

<svg fill="none" height="45" viewBox="0 0 77 45" width="77" xmlns="http://www.w3.org/2000/svg"><g fill="#ba0c2f"><path d="m7.97556 24.9274c-.00676 1.3381-.03245 2.6235.00158 3.8985.04033 4.2495 3.51796 7.6615 7.76736 7.6209 4.2494-.0403 7.6614-3.5179 7.6209-7.7673-.0007-.0541-.0016-.1084-.0034-.1625.009-6.6595.009-13.3191 0-19.97818v-3.88052h4.8667l3.8805-3.880529h-12.8184v7.761049c-.0027 6.47318-.0027 12.94658 0 19.41978 0 .3959.0079.7997-.027 1.1957-.1954 1.9896-1.9666 3.4442-3.9563 3.2489-1.7717-.174-3.154-1.6104-3.2599-3.3875-.0466-1.2949-.0166-2.5929-.0205-3.8891v-.7626c0-.0025-.0011-.0047-.0013-.0072v-3.4954l-4.05001 4.0658z"/><path d="m64.5114 33.1799h-5.515v-.0047h-6.5573c.2615-.3714.4435-.6335.6288-.8933 1.424-1.9846 2.8446-4.8139 4.262-6.8028 2.423-3.3557 3.4193-7.5337 2.7718-11.6218-1.1815-8.00961-8.0869-13.9223367-16.183-13.85675987-8.9606.07256267-16.1657 7.39552987-16.0932 16.35615987-.0205 4.1394.0145 8.2789-.0126 12.4183.0007 6.5417-5.1772 11.9102-11.7146 12.1462-6.65704.2404-12.25653-4.9206-12.57721-11.5553l-3.52109 3.5211c1.84719 7.1005 8.31113 12.1689 15.8036 12.1125 8.9502-.0671 16.1512-7.3772 16.0841-16.3275.0173-4.1647-.0271-8.3296.0173-12.4936.003-.8525.0954-1.7023.2759-2.5354 1.4228-6.56625 7.8992-10.73567 14.4652-9.31281 8.7636 2.00674 12.2385 12.11031 7.3888 18.76891-2.7432 3.7672-5.4605 8.397-8.1904 12.1746-.4457.6176-.898 1.2274-1.4159 1.9402h12.2674v.0246h11.8741l-4.0587-4.0588z"/><path d="m72.3389 41.0075h-36.0537c.2573-.3707.4309-.6312.6145-.8854 4.4007-6.1063 8.811-13.0482 13.231-19.1403 1.1209-1.484 1.6874-3.3129 1.602-5.1707-.2118-3.9905-3.4497-7.15125-7.4442-7.26686-3.9991-.15752-7.4327 2.81866-7.8449 6.79946-.1663 2.1066-.0847 4.2346-.0958 6.3529-.0029.0624-.0018.1158.003.1611v3.3009l4.0635-5.8329v-.7439l-.0198.0151.0182-.0167c.0041-1.8452-.0182-.5963.0221-2.4408-.0243-1.3926.8052-2.6589 2.0915-3.1929 1.2667-.6344 2.7916-.4356 3.8534.502.0032.0025.0061.0052.0093.0077 1.5346 1.2752 1.7451 3.5531.4698 5.0877-5.9972 8.3042-11.994 17.4511-17.9912 25.7555-.1537.2129-.2891.4387-.4609.7001h47.9243z"/></g></svg>

<svg width="77" height="45" viewBox="0 0 77 45" fill="none" xmlns="http://www.w3.org/2000/svg">
<path d="M7.97556 24.9274C7.9688 26.2655 7.94311 27.5509 7.97714 28.8259C8.01747 33.0754 11.4951 36.4874 15.7445 36.4468C19.9939 36.4065 23.4059 32.9289 23.3654 28.6795C23.3647 28.6254 23.3638 28.5711 23.362 28.517C23.371 21.8575 23.371 15.1979 23.362 8.53882V4.6583H28.2287L32.1092 0.777771H19.2908V8.53882C19.2881 15.012 19.2881 21.4854 19.2908 27.9586C19.2908 28.3545 19.2987 28.7583 19.2638 29.1543C19.0684 31.1439 17.2972 32.5985 15.3075 32.4032C13.5358 32.2292 12.1535 30.7928 12.0476 29.0157C12.001 27.7208 12.031 26.4228 12.0271 25.1266V24.364C12.0271 24.3615 12.026 24.3593 12.0258 24.3568V20.8614L7.97579 24.9272L7.97556 24.9274Z" fill="#BA0C2F"/>
<path d="M64.5114 33.1799H58.9964V33.1752H52.4391C52.7006 32.8038 52.8826 32.5417 53.0679 32.2819C54.4919 30.2973 55.9125 27.468 57.3299 25.4791C59.7529 22.1234 60.7492 17.9454 60.1017 13.8573C58.9202 5.84769 52.0148 -0.0650367 43.9187 0.000540133C34.9581 0.0731028 27.753 7.39607 27.8255 16.3567C27.805 20.4961 27.84 24.6356 27.8129 28.775C27.8136 35.3167 22.6357 40.6852 16.0983 40.9212C9.44126 41.1616 3.84177 36.0006 3.52109 29.3659L0 32.887C1.84719 39.9875 8.31113 45.0559 15.8036 44.9995C24.7538 44.9324 31.9548 37.6223 31.8877 28.672C31.905 24.5073 31.8606 20.3424 31.905 16.1784C31.908 15.3259 32.0004 14.4761 32.1809 13.643C33.6037 7.07675 40.0801 2.90733 46.6461 4.33019C55.4097 6.33693 58.8846 16.4405 54.0349 23.0991C51.2917 26.8663 48.5744 31.4961 45.8445 35.2737C45.3988 35.8913 44.9465 36.5011 44.4286 37.2139H56.696V37.2385H68.5701L64.5114 33.1797V33.1799Z" fill="#BA0C2F"/>
<path d="M72.3389 41.0075H36.2852C36.5425 40.6368 36.7161 40.3763 36.8997 40.1221C41.3004 34.0158 45.7107 27.0739 50.1307 20.9818C51.2516 19.4978 51.8181 17.6689 51.7327 15.8111C51.5209 11.8206 48.283 8.65985 44.2885 8.54424C40.2894 8.38672 36.8558 11.3629 36.4436 15.3437C36.2773 17.4503 36.3589 19.5783 36.3478 21.6966C36.3449 21.759 36.346 21.8124 36.3508 21.8577V25.1586L40.4143 19.3257V18.5818L40.3945 18.5969L40.4127 18.5802C40.4168 16.735 40.3945 17.9839 40.4348 16.1394C40.4105 14.7468 41.24 13.4805 42.5263 12.9465C43.793 12.3121 45.3179 12.5109 46.3797 13.4485C46.3829 13.451 46.3858 13.4537 46.389 13.4562C47.9236 14.7314 48.1341 17.0093 46.8588 18.5439C40.8616 26.8481 34.8648 35.995 28.8676 44.2994C28.7139 44.5123 28.5785 44.7381 28.4067 44.9995H76.331L72.3389 41.0075Z" fill="#BA0C2F"/>
</svg>
